fs/table_cell_edit_28_regular.svg

<svg viewBox="0 0 28 28" fill="none" xmlns="http://www.w3.org/2000/svg" height="1em" width="1em">
  <path d="M5.75 19C4.23122 19 3 17.7688 3 16.25V11.75C3 10.2312 4.23122 9 5.75 9H22.25C23.1117 9 23.8809 9.39636 24.3851 10.0167C23.8217 10.0736 23.2702 10.2756 22.7912 10.6229C22.6275 10.5441 22.4439 10.5 22.25 10.5L18 10.5V15.356L16.5 16.856V10.5L11.5 10.5V17.5L15.856 17.5L14.4912 18.8648C14.4472 18.9088 14.4043 18.9539 14.3627 19L5.75 19ZM4.5 16.25C4.5 16.9404 5.05964 17.5 5.75 17.5H10V10.5L5.75 10.5C5.05964 10.5 4.5 11.0596 4.5 11.75L4.5 16.25ZM23.0999 11.6695L15.1974 19.5719C14.8533 19.916 14.6092 20.3472 14.4911 20.8194L14.0334 22.6501C13.8344 23.4462 14.5556 24.1673 15.3517 23.9683L17.1824 23.5106C17.6545 23.3926 18.0857 23.1485 18.4299 22.8043L26.3323 14.9019C27.2249 14.0093 27.2249 12.5621 26.3323 11.6695C25.4397 10.7768 23.9925 10.7768 23.0999 11.6695Z" fill="#212121"/>
</svg>

<svg viewBox="0 0 28 28" fill="none" xmlns="http://www.w3.org/2000/svg" height="1em" width="1em">
  <path d="M5.75 19A2.75 2.75 0 0 1 3 16.25v-4.5A2.75 2.75 0 0 1 5.75 9h16.5c.862 0 1.63.396 2.135 1.017a3.272 3.272 0 0 0-1.594.606 1.244 1.244 0 0 0-.541-.123H18v4.856l-1.5 1.5V10.5h-5v7h4.356l-1.365 1.365a3.64 3.64 0 0 0-.128.135H5.75ZM4.5 16.25c0 .69.56 1.25 1.25 1.25H10v-7H5.75c-.69 0-1.25.56-1.25 1.25v4.5Zm18.6-4.58-7.903 7.902a2.686 2.686 0 0 0-.706 1.247l-.458 1.831a1.087 1.087 0 0 0 1.319 1.318l1.83-.457a2.685 2.685 0 0 0 1.248-.707l7.902-7.902A2.286 2.286 0 0 0 23.1 11.67Z" fill="#212121"/>
</svg>
